plasma/desktoptheme/Arc-Color/icons/choqok.svg

<svg xmlns="http://www.w3.org/2000/svg" width="32" height="32" version="1.1">
 <defs>
  <style id="current-color-scheme" type="text/css">
   .ColorScheme-Background {color:#2f343f; } .ColorScheme-ButtonBackground { color:#444a58; } .ColorScheme-Highlight { color:#5c87cc; } .ColorScheme-Text { color:#d3dae3; } .ColorScheme-NegativeText { color:#f44336; } .ColorScheme-PositiveText { color:#4caf50; } .ColorScheme-NeutralText { color:#ff9800; }
  </style>
 </defs>
 <g id="22-22-choqok" transform="translate(32.000001,10.000001)">
  <rect style="opacity:0.001" width="22" height="22" x="0" y="0"/>
  <path style="fill:currentColor" class="ColorScheme-Text" d="M 11,3 10.238281,4 9.400391,3.5 8.833984,4.7265625 C 7.079166,5.0876625 5.8381164,5.9347906 4.8105469,7.275391 3.0132402,9.620291 3,13.667425 3,15.953125 3,18.238825 7.190476,19 11,19 c 3.809524,0 8,-0.761175 8,-3.046875 0,-2.2857 -0.01325,-6.332834 -1.810547,-8.677734 C 16.161883,5.9347906 14.920835,5.0876625 13.166016,4.7265625 L 12.599609,3.5 11.761719,4 Z m 3.5,7 A 1.5,1.5 0 0 1 16,11.5 1.5,1.5 0 0 1 14.5,13 1.5,1.5 0 0 1 13,11.5 1.5,1.5 0 0 1 14.5,10 Z m -7,1 A 1.5,1.5 0 0 1 9,12.5 1.5,1.5 0 0 1 8.912109,13 1.5,1.5 0 0 0 7.5,12 1.5,1.5 0 0 0 6.0878906,13 1.5,1.5 0 0 1 6,12.5 1.5,1.5 0 0 1 7.5,11 Z m 6.5,0 v 1 h 1 v -1 z m -3,2 c 0.07658,10e-4 0.15085,0.03466 0.205078,0.09766 l 1.701172,1.738278 C 13.088291,15.046036 12.991911,15.9999 12.734375,16 H 11 9.265625 C 9.008086,15.9999 8.911709,15.046036 9.09375,14.835938 l 1.701172,-1.738282 C 10.849149,13.034656 10.923415,13.0001 11,13 Z"/>
 </g>
 <g id="choqok">
  <rect style="opacity:0.001" width="32" height="32" x="0" y="0"/>
  <path style="fill:currentColor" class="ColorScheme-Text" d="M 16 4 L 14.857422 5.5 L 13.601562 4.75 L 12.751953 6.5898438 C 10.119726 7.1314938 8.2581512 8.4031625 6.7167969 10.414062 C 4.0208368 13.931413 4 20.001138 4 23.429688 C 4 26.858238 10.285715 28 16 28 C 21.714286 28 28 26.858238 28 23.429688 C 28 20.001138 27.981105 13.931413 25.285156 10.414062 C 23.7438 8.4031625 21.882229 7.1314937 19.25 6.5898438 L 18.400391 4.75 L 17.142578 5.5 L 16 4 z M 21 15 A 2.0000001 2.0000001 0 0 1 23 17 A 2.0000001 2.0000001 0 0 1 21 19 A 2.0000001 2.0000001 0 0 1 19 17 A 2.0000001 2.0000001 0 0 1 21 15 z M 11 16 A 1.9999998 1.9999998 0 0 1 13 18 A 1.9999998 1.9999998 0 0 1 12.882812 18.666016 A 1.9999998 1.9999998 0 0 0 11 17.333984 A 1.9999998 1.9999998 0 0 0 9.1171875 18.666016 A 1.9999998 1.9999998 0 0 1 9 18 A 1.9999998 1.9999998 0 0 1 11 16 z M 20 16 L 20 18 L 22 18 L 22 16 L 20 16 z M 16 19 C 16.114871 19.0013 16.227252 19.046847 16.308594 19.130859 L 18.859375 21.447266 C 19.132437 21.727396 18.987868 22.999868 18.601562 23 L 16 23 L 13.398438 23 C 13.012129 22.999868 12.867563 21.727396 13.140625 21.447266 L 15.693359 19.130859 C 15.774699 19.046859 15.885123 19.000132 16 19 z"/>
 </g>
</svg>

<?xml version="1.0" encoding="UTF-8"?>
<svg width="32" height="32" version="1.1" xmlns="http://www.w3.org/2000/svg">
 <defs>
  <style id="current-color-scheme" type="text/css">.ColorScheme-Background {color:#2f343f; } .ColorScheme-ButtonBackground { color:#444a58; } .ColorScheme-Highlight { color:#5c87cc; } .ColorScheme-Text { color:#d3dae3; } .ColorScheme-NegativeText { color:#f44336; } .ColorScheme-PositiveText { color:#4caf50; } .ColorScheme-NeutralText { color:#ff9800; }</style>
 </defs>
 <g id="22-22-choqok" transform="translate(32 10)">
  <rect width="22" height="22" opacity=".001"/>
  <path class="ColorScheme-Text" d="m11 3-0.76172 1-0.83789-0.5-0.56641 1.2266c-1.7548 0.3611-2.9959 1.2082-4.0234 2.5488-1.7973 2.3449-1.8105 6.392-1.8105 8.6777s4.1905 3.0469 8 3.0469 8-0.76118 8-3.0469-0.01325-6.3328-1.8105-8.6777c-1.0276-1.3406-2.2686-2.1877-4.0234-2.5488l-0.56641-1.2266-0.83789 0.5zm3.5 7a1.5 1.5 0 0 1 1.5 1.5 1.5 1.5 0 0 1-1.5 1.5 1.5 1.5 0 0 1-1.5-1.5 1.5 1.5 0 0 1 1.5-1.5zm-7 1a1.5 1.5 0 0 1 1.5 1.5 1.5 1.5 0 0 1-0.087891 0.5 1.5 1.5 0 0 0-1.4121-1 1.5 1.5 0 0 0-1.4121 1 1.5 1.5 0 0 1-0.087891-0.5 1.5 1.5 0 0 1 1.5-1.5zm6.5 0v1h1v-1zm-3 2c0.07658 1e-3 0.15085 0.03466 0.20508 0.09766l1.7012 1.7383c0.18204 0.2101 0.085661 1.164-0.17188 1.1641h-3.4688c-0.25754-1e-4 -0.35392-0.95396-0.17188-1.1641l1.7012-1.7383c0.054227-0.063 0.12849-0.097556 0.20508-0.097656z" fill="currentColor"/>
 </g>
 <g id="choqok">
  <rect width="32" height="32" opacity=".001"/>
  <path class="ColorScheme-Text" d="m16 4-1.1426 1.5-1.2559-0.75-0.84961 1.8398c-2.6322 0.54165-4.4938 1.8133-6.0352 3.8242-2.696 3.5174-2.7168 9.5871-2.7168 13.016s6.2857 4.5703 12 4.5703c5.7143 0 12-1.1418 12-4.5703s-0.018895-9.4983-2.7148-13.016c-1.5414-2.0109-3.4029-3.2826-6.0352-3.8242l-0.84961-1.8398-1.2578 0.75-1.1426-1.5zm5 11a2 2 0 0 1 2 2 2 2 0 0 1-2 2 2 2 0 0 1-2-2 2 2 0 0 1 2-2zm-10 1a2 2 0 0 1 2 2 2 2 0 0 1-0.11719 0.66602 2 2 0 0 0-1.8828-1.332 2 2 0 0 0-1.8828 1.332 2 2 0 0 1-0.11719-0.66602 2 2 0 0 1 2-2zm9 0v2h2v-2h-2zm-4 3c0.11487 0.0013 0.22725 0.046847 0.30859 0.13086l2.5508 2.3164c0.27306 0.28013 0.12849 1.5526-0.25781 1.5527h-2.6016-2.6016c-0.38631-1.32e-4 -0.53088-1.2726-0.25781-1.5527l2.5527-2.3164c0.08134-0.084 0.19176-0.13073 0.30664-0.13086z" fill="currentColor"/>
 </g>
</svg>
